icons/emergency_operations_center.svg

<svg width="48" height="48" viewBox="0 0 48 48" fill="none" xmlns="http://www.w3.org/2000/svg">
<path d="M19 32H24V36H19V32Z" fill="black"/>
<path d="M17 32H12V36H17V32Z" fill="black"/>
<path fill-rule="evenodd" clip-rule="evenodd" d="M16 10C15.4477 10 15 10.4477 15 11V12H13C11.3431 12 10 13.3431 10 15C10 16.6569 11.3431 18 13 18H15V19H11V21H15V24H6V26H8V40H7C6.44772 40 6 40.4477 6 41C6 41.5523 6.44772 42 7 42H41C41.5523 42 42 41.5523 42 41C42 40.4477 41.5523 40 41 40H40V26H42V24H29V22.0302C31.2884 23.0709 34.0221 22.8153 36.0919 21.2636C36.3559 21.0657 36.6091 20.8467 36.8491 20.6066C37.0892 20.3665 37.3082 20.1133 37.5061 19.8494L33.3137 15.6569L34.2636 14.7071C34.6541 14.3166 34.6541 13.6835 34.2636 13.2929C33.8731 12.9024 33.2399 12.9024 32.8494 13.2929L31.8995 14.2427L27.7069 10.0501C27.4429 10.248 27.1897 10.467 26.9496 10.7071C26.7096 10.9472 26.4906 11.2004 26.2927 11.4643C24.5152 13.8352 24.4384 17.0772 26.0624 19.5232L21.5857 24H17V21H21V19H17V18H19C20.6569 18 22 16.6569 22 15C22 13.3431 20.6569 12 19 12H17V11C17 10.4477 16.5523 10 16 10ZM24.4141 24H27V21.4141L24.4141 24ZM15 14H13C12.4477 14 12 14.4477 12 15C12 15.5523 12.4477 16 13 16H15V14ZM17 14H19C19.5523 14 20 14.4477 20 15C20 15.5523 19.5523 16 19 16H17V14ZM10 26V27H38V26H10ZM34.6571 19.8288C32.7157 21.115 30.0743 20.9028 28.3638 19.1924C26.6534 17.4819 26.4413 14.8405 27.7275 12.8992L34.6571 19.8288ZM10 29H38V40H36V32H31V40H10V29Z" fill="black"/>
</svg>

<svg
  xmlns="http://www.w3.org/2000/svg"
  width="24"
  height="24"
  viewBox="0 0 24 24"
  fill="none"
  stroke="currentColor"
  stroke-width="2"
  stroke-linecap="round"
  stroke-linejoin="round"
>
  <path d="M19 32h5v4h-5z" />
  <path d="M17 32h-5v4h5z" />
  <path
    fill-rule="evenodd"
    d="M16 10a1 1 0 0 0-1 1v1h-2a3 3 0 1 0 0 6h2v1h-4v2h4v3H6v2h2v14H7a1 1 0 1 0 0 2h34a1 1 0 1 0 0-2h-1V26h2v-2H29v-1.97a7.01 7.01 0 0 0 8.506-2.18l-4.192-4.193.95-.95a1 1 0 0 0-1.415-1.414l-.95.95-4.192-4.193a7 7 0 0 0-1.414 1.414 7.01 7.01 0 0 0-.23 8.06L21.585 24H17v-3h4v-2h-4v-1h2a3 3 0 1 0 0-6h-2v-1a1 1 0 0 0-1-1m8.414 14H27v-2.586zM15 14h-2a1 1 0 1 0 0 2h2zm2 0h2a1 1 0 1 1 0 2h-2zm-7 12v1h28v-1zm24.657-6.171a5.002 5.002 0 0 1-6.93-6.93zM10 29h28v11h-2v-8h-5v8H10z"
    clip-rule="evenodd"
  />
</svg>
